X: 16141
T: Jenny Come Tye My Gravat
T: Jenny Come Tie My Cravat
%R: waltz, minuet
B: James Oswald "The Caledonian Pocket Companion" v.1 b.6 p.14 (and top 3 staffs of p.15)
S: https://ia800501.us.archive.org/18/items/caledonianpocket01rugg/caledonianpocket01rugg_bw.pdf
Z: 2020 John Chambers <jc:trillian.mit.edu>
M: 3/4
L: 1/8
K: D
"_Mod.y Quick"AG |\
F2D2F2 | A4GF | E2[=c2=C2]E2 | G4(AG) |\
F2D2F2 | A4g2 | fgagfe | d4 :: g2 |\
(fg)a2f2 | e2(gf)(ed) |
=c3d(ef) | {f2}g4(fe) |\
(fg)a2f2 | e2(gf)(ed) | ^c2A2c2 | d4 :: A2 |\
F2(GF)(ED) | A2(BA)(GF) | E2=c2E2 | G4A2 |
F2(GF)(ED) | d4G2 | FGAFGE | D4 :: g2 |\
f2(de)(fg) | a2(ba)(gf) | edcdef | g4(fe) |\
fgafb2 | efgea2 |
A2d2c2 | d4 :: A2 |\
DFAd fa | A3GF2 | E3G(FA) | G4(B/A/G) |\
FDFA df | A4g2 | fgagfe | d4 :: fg |\
agfgaf |
gfefge | =c3d(ef) | g4(fe) |\
a2g2f2 | gfefge | a2A2(dc) | d4 :: A2 |\
d2c2B2 | A3GF2 | G2B2(g/f/e) | {d}Tc3BA2 |
dedcBA | B=cBAGF | E2(AG)(FE) | D4 :: (ag) |\
(f2d2)c2 | B2b2a2 | gfe2d2 | a4A2 | dedcBA | B2g2f2 |
e2Adce | d4 :: A2 |\
(3(FED) (3(AGF) (3(dcB) | A3GF2 | "P.15" =c3E>GF>A | G4(B/A/G) |\
(3(FGA) (3(Bcd) (3(efg) | A4g2 | (f/e/d)B2{d}Tc2 | d4 :|
|: (ag) |\
(3(fag) (3(fed) (3(bag) | (3(gfe) (3(edc) (3(agf) | (3(fed) (3(dcB) (3(agf) | g4(ag) |\
fdadbd | (3(c'ba) (3(d'c'b) (3(agf) | e2A2(dc) | d4 :|


